src/assets/cloud-with-rain-alt.svg

<svg xmlns="http://www.w3.org/2000/svg" viewBox="0 0 20 20"><path fill="currentColor" d="M16.903 5.793c.001-.037.006-.074.006-.111a2.592 2.592 0 0 0-2.591-2.591c-.653 0-1.248.244-1.704.642a5.162 5.162 0 0 0-4.342-2.369 5.178 5.178 0 0 0-5.119 4.415 3.453 3.453 0 0 0 .802 6.812h12.09A3.455 3.455 0 0 0 19.5 9.136a3.454 3.454 0 0 0-2.597-3.343m-.858 5.935H3.955a2.594 2.594 0 0 1-2.591-2.591 2.58 2.58 0 0 1 1.99-2.518.862.862 0 0 0 .654-.712 4.337 4.337 0 0 1 4.264-3.679c1.464 0 2.385.306 3.186 1.543.136.21.789.783 1.037.817.04.006.119.008.119.008.208 0 .41-.074.568-.213.315-.276.72-.429 1.136-.429a1.73 1.73 0 0 1 1.726 1.736l-.003.063a.862.862 0 0 0 .648.876 2.587 2.587 0 0 1 1.947 2.506 2.593 2.593 0 0 1-2.591 2.593m-6.909 3.454a.863.863 0 0 0 1.728 0c0-.863-.864-1.727-.864-1.727s-.864.863-.864 1.727m-4.318 2.59a.863.863 0 1 0 1.727 0c0-.863-.864-1.728-.864-1.728s-.863.865-.863 1.728m8.636-.863a.864.864 0 0 0 1.727 0c0-.864-.863-1.728-.863-1.728s-.864.864-.864 1.728"/></svg>

<svg xmlns="http://www.w3.org/2000/svg" viewBox="0 0 20 20">
  <path fill="currentColor" d="M16.903,5.793c0.001-0.037,0.006-0.074,0.006-0.111c0-1.431-1.161-2.591-2.591-2.591c-0.653,0-1.248,0.244-1.704,0.642c-0.922-1.424-2.518-2.369-4.342-2.369c-2.601,0-4.748,1.918-5.119,4.415C1.633,6.141,0.5,7.504,0.5,9.136c0,1.908,1.546,3.455,3.455,3.455h12.09c1.908,0,3.455-1.547,3.455-3.455C19.5,7.525,18.395,6.176,16.903,5.793 M16.045,11.728H3.955c-1.429,0-2.591-1.162-2.591-2.591c0-1.203,0.818-2.239,1.99-2.518c0.343-0.081,0.603-0.364,0.654-0.712C4.32,3.809,6.153,2.228,8.272,2.228c1.464,0,2.385,0.306,3.186,1.543c0.136,0.21,0.789,0.783,1.037,0.817c0.04,0.006,0.119,0.008,0.119,0.008c0.208,0,0.41-0.074,0.568-0.213c0.315-0.276,0.72-0.429,1.136-0.429c0.952,0,1.727,0.775,1.726,1.736l-0.003,0.063c-0.02,0.409,0.252,0.774,0.648,0.876c1.146,0.294,1.947,1.324,1.947,2.506C18.637,10.565,17.475,11.728,16.045,11.728 M9.136,15.182c0,0.477,0.387,0.863,0.864,0.863c0.477,0,0.864-0.387,0.864-0.863c0-0.863-0.864-1.727-0.864-1.727S9.136,14.318,9.136,15.182 M4.818,17.772c0,0.478,0.387,0.864,0.863,0.864c0.477,0,0.864-0.387,0.864-0.864c0-0.863-0.864-1.728-0.864-1.728S4.818,16.909,4.818,17.772M13.454,16.909c0,0.477,0.388,0.863,0.864,0.863s0.863-0.387,0.863-0.863c0-0.864-0.863-1.728-0.863-1.728S13.454,16.045,13.454,16.909"/>
</svg>
